svg/fluentui-system-icons/ic_fluent_text_strikethrough_24_regular.svg

<svg width="24" height="24" viewBox="0 0 24 24" fill="none" xmlns="http://www.w3.org/2000/svg">
<path d="M4.75 12.0002H19.2507C19.6649 12.0002 20.0007 12.3359 20.0007 12.7502C20.0007 13.1299 19.7185 13.4437 19.3524 13.4933L19.2507 13.5002L16.2763 13.5001C17.1552 14.3132 17.6124 15.2931 17.6124 16.4347C17.6124 19.2599 14.3804 21.0745 10.8577 20.6651C8.6233 20.4054 7.04896 19.5095 6.22285 17.9632C6.02767 17.5978 6.16562 17.1434 6.53097 16.9482C6.89632 16.7531 7.35071 16.891 7.54589 17.2564C8.11607 18.3236 9.2483 18.968 11.0308 19.1751C13.7738 19.4939 16.1124 18.1809 16.1124 16.4347C16.1124 15.2627 15.3072 14.3077 13.547 13.5485L13.431 13.5L4.75 13.5002C4.3703 13.5002 4.05651 13.218 4.00685 12.8519L4 12.7502C4 12.3705 4.28215 12.0567 4.64823 12.007L4.75 12.0002H19.2507H4.75ZM6.26098 8.12336C6.41313 5.29223 9.08273 3.65466 12.5845 4.06162C14.7732 4.31598 16.4484 5.11481 17.5674 6.47091C17.8311 6.79039 17.7858 7.2631 17.4663 7.52674C17.1469 7.79038 16.6742 7.74512 16.4105 7.42564C15.5584 6.393 14.2394 5.76405 12.4113 5.55159C9.69368 5.23576 7.76098 6.35648 7.76098 8.12336C7.76098 8.89538 7.99478 9.47149 8.59075 10.1045L8.71896 10.2372C8.81323 10.3327 8.91566 10.4324 8.96956 10.4763L9 10.4979H7.08082L7.05613 10.4589C6.91314 10.2526 6.1997 9.26354 6.26098 8.12336Z" fill="#212121"/>
</svg>

<svg xmlns="http://www.w3.org/2000/svg" width="24" height="24"><path d="M4.75 12h14.5a.75.75 0 0 1 .102 1.493l-.101.007h-2.975c.88.813 1.336 1.793 1.336 2.935 0 2.825-3.232 4.64-6.754 4.23-2.235-.26-3.809-1.155-4.635-2.702a.75.75 0 0 1 1.323-.707c.57 1.068 1.702 1.712 3.485 1.92 2.743.318 5.081-.995 5.081-2.741 0-1.172-.805-2.127-2.565-2.886l-.116-.049H4.75a.75.75 0 0 1-.743-.648L4 12.75a.75.75 0 0 1 .648-.743L4.75 12h14.5-14.5Zm1.511-3.877c.152-2.83 2.822-4.468 6.324-4.061 2.188.254 3.863 1.053 4.982 2.409a.75.75 0 1 1-1.157.955c-.852-1.033-2.17-1.662-3.999-1.874-2.717-.316-4.65.804-4.65 2.571 0 .772.234 1.348.83 1.982l.128.132c.094.096.197.195.25.24l.031.02H7.08l-.024-.038c-.143-.206-.856-1.195-.795-2.336Z"/></svg>
